X: 31060
T: Paddy Cronin's
R: reel
M: 4/4
K: Eminor
|:B,EED EFGA|B2eB dBAc|BEED EGFE|D~B,3 DFED|
B,EED EFGA|B2eB dBAF|GEFE DB,B,A|1 BFAF E2ED:|2 BFAF E3c||
|:Beee fBeB|dBAF BFAF|Beee fBeB|dBAF FEFA|
Beee fBeB|dBAF BFAF|G2GF EB,B,A|1 BFAF E3c:|2 BFAF E2ED||

